assets/images/ico_in2.svg

<svg width="25" height="27" viewBox="0 0 25 27" fill="none" xmlns="http://www.w3.org/2000/svg">
<path d="M5.82041 8.58203H0.80166C0.57892 8.58203 0.398438 8.77538 0.398438 9.01381V26.2787C0.398438 26.5172 0.57892 26.7104 0.80166 26.7104H5.82041C6.04315 26.7104 6.22363 26.5172 6.22363 26.2787V9.01381C6.22363 8.77538 6.04315 8.58203 5.82041 8.58203Z" fill="white"/>
<path d="M3.31179 0C1.48565 0 0 1.58894 0 3.54199C0 5.49591 1.48565 7.08545 3.31179 7.08545C5.13647 7.08545 6.62091 5.49582 6.62091 3.54199C6.62099 1.58894 5.13647 0 3.31179 0Z" fill="white"/>
<path d="M18.5849 8.15381C16.5692 8.15381 15.0791 9.08167 14.1753 10.136V9.01466C14.1753 8.77624 13.9948 8.5829 13.7721 8.5829H8.96573C8.74298 8.5829 8.5625 8.77624 8.5625 9.01466V26.2791C8.5625 26.5176 8.74298 26.7108 8.96573 26.7108H13.9736C14.1963 26.7108 14.3768 26.5176 14.3768 26.2791V17.7372C14.3768 14.8588 15.1069 13.7374 16.9808 13.7374C19.0216 13.7374 19.1838 15.5351 19.1838 17.8853V26.2792C19.1838 26.5177 19.3643 26.7109 19.587 26.7109H24.5967C24.8195 26.7109 24.9999 26.5177 24.9999 26.2792V16.8093C24.9999 12.5292 24.2378 8.15381 18.5849 8.15381Z" fill="white"/>
</svg>

<svg width="25" height="27" fill="none" xmlns="http://www.w3.org/2000/svg"><path d="M5.82 8.582H.802c-.223 0-.404.193-.404.432v17.265c0 .238.18.431.404.431H5.82c.223 0 .404-.193.404-.431V9.014c0-.239-.18-.432-.404-.432zM3.312 0C1.486 0 0 1.589 0 3.542c0 1.954 1.486 3.543 3.312 3.543 1.824 0 3.309-1.59 3.309-3.543S5.136 0 3.31 0zm15.273 8.154c-2.016 0-3.506.928-4.41 1.982V9.015c0-.239-.18-.432-.403-.432H8.966c-.223 0-.403.193-.403.432v17.264c0 .239.18.432.403.432h5.008c.222 0 .403-.193.403-.432v-8.542c0-2.878.73-4 2.604-4 2.04 0 2.203 1.798 2.203 4.148v8.394c0 .239.18.432.403.432h5.01c.223 0 .403-.193.403-.432v-9.47c0-4.28-.762-8.655-6.415-8.655z" fill="#fff"/></svg>
